austria/municipalities/50422.svg

<?xml version="1.0" encoding="UTF-8"?>
<!DOCTYPE svg PUBLIC "-//W3C//DTD SVG 1.1//EN" "http://www.w3.org/Graphics/SVG/1.1/DTD/svg11.dtd">
<svg xmlns="http://www.w3.org/2000/svg" version="1.1" width="162px" height="196px" style="shape-rendering:geometricPrecision; text-rendering:geometricPrecision; image-rendering:optimizeQuality; fill-rule:evenodd; clip-rule:evenodd" xmlns:xlink="http://www.w3.org/1999/xlink">
<g><path style="opacity:0.97" fill="#010202" d="M 8.5,-0.5 C 57.5,-0.5 106.5,-0.5 155.5,-0.5C 156.5,2.5 158.5,4.5 161.5,5.5C 161.5,45.8333 161.5,86.1667 161.5,126.5C 152.611,164.723 128.944,187.723 90.5,195.5C 83.5,195.5 76.5,195.5 69.5,195.5C 29.6051,187.605 6.27181,163.605 -0.5,123.5C -0.5,83.8333 -0.5,44.1667 -0.5,4.5C 3.33755,4.08714 6.33755,2.42047 8.5,-0.5 Z"/></g>
<g><path style="opacity:1" fill="#e29867" d="M 144.5,5.5 C 97.8333,5.5 51.1667,5.5 4.5,5.5C 6.10019,4.35556 7.76685,3.18889 9.5,2C 57.8333,1.33333 106.167,1.33333 154.5,2C 155.5,3 156.5,4 157.5,5C 153.179,5.49902 148.846,5.66568 144.5,5.5 Z"/></g>
<g><path style="opacity:1" fill="#006500" d="M 4.5,5.5 C 51.1667,5.5 97.8333,5.5 144.5,5.5C 149.305,6.48717 154.305,6.82051 159.5,6.5C 159.5,26.1667 159.5,45.8333 159.5,65.5C 106.833,65.5 54.1667,65.5 1.5,65.5C 1.33338,45.8305 1.50005,26.1638 2,6.5C 2.67076,5.74756 3.5041,5.41423 4.5,5.5 Z"/></g>
<g><path style="opacity:1" fill="#aa6e49" d="M 92.5,12.5 C 94.1703,12.7512 95.6703,13.4178 97,14.5C 105.626,26.2608 105.459,37.9274 96.5,49.5C 96.1667,49 95.8333,48.5 95.5,48C 97.2758,43.1281 99.2758,38.4614 101.5,34C 100.167,32.1598 100.334,31.6598 102,32.5C 102.667,31.1667 102.667,29.8333 102,28.5C 101.667,29.1667 101.333,29.8333 101,30.5C 100.316,29.2161 100.483,28.0495 101.5,27C 99.9471,24.3451 98.7804,21.5117 98,18.5C 97.6667,18.8333 97.3333,19.1667 97,19.5C 95.1038,17.4701 92.9371,15.8034 90.5,14.5C 90.0941,15.5575 90.0941,16.8908 90.5,18.5C 86.4454,18.8242 82.4454,18.4909 78.5,17.5C 78.1924,16.6919 77.6924,16.0253 77,15.5C 75.2415,18.6629 73.2415,18.9963 71,16.5C 60.8203,25.0723 58.987,35.239 65.5,47C 64.9747,47.6924 64.3081,48.1924 63.5,48.5C 57.3618,39.4387 56.6951,30.1053 61.5,20.5C 64.809,16.691 68.809,13.8576 73.5,12C 74.8333,11.3333 76.1667,11.3333 77.5,12C 80.1667,15.3333 82.8333,15.3333 85.5,12C 87.9291,11.2967 90.2625,11.4634 92.5,12.5 Z"/></g>
<g><path style="opacity:1" fill="#cb9176" d="M 93.5,11.5 C 92.8333,11.5 92.5,11.8333 92.5,12.5C 90.2625,11.4634 87.9291,11.2967 85.5,12C 82.8333,15.3333 80.1667,15.3333 77.5,12C 76.1667,11.3333 74.8333,11.3333 73.5,12C 68.809,13.8576 64.809,16.691 61.5,20.5C 60.8333,20.5 60.5,20.1667 60.5,19.5C 62.9619,13.9215 67.2952,10.7548 73.5,10C 79.5,9.33333 85.5,9.33333 91.5,10C 92.4158,10.2784 93.0825,10.7784 93.5,11.5 Z"/></g>
<g><path style="opacity:1" fill="#c1b7b2" d="M 60.5,19.5 C 60.5,20.1667 60.8333,20.5 61.5,20.5C 56.6951,30.1053 57.3618,39.4387 63.5,48.5C 64.3081,48.1924 64.9747,47.6924 65.5,47C 58.987,35.239 60.8203,25.0723 71,16.5C 73.2415,18.9963 75.2415,18.6629 77,15.5C 77.6924,16.0253 78.1924,16.6919 78.5,17.5C 82.4454,18.4909 86.4454,18.8242 90.5,18.5C 90.0941,16.8908 90.0941,15.5575 90.5,14.5C 92.9371,15.8034 95.1038,17.4701 97,19.5C 97.3333,19.1667 97.6667,18.8333 98,18.5C 98.7804,21.5117 99.9471,24.3451 101.5,27C 100.483,28.0495 100.316,29.2161 101,30.5C 101.333,29.8333 101.667,29.1667 102,28.5C 102.667,29.8333 102.667,31.1667 102,32.5C 100.334,31.6598 100.167,32.1598 101.5,34C 99.2758,38.4614 97.2758,43.1281 95.5,48C 95.8333,48.5 96.1667,49 96.5,49.5C 105.459,37.9274 105.626,26.2608 97,14.5C 95.6703,13.4178 94.1703,12.7512 92.5,12.5C 92.5,11.8333 92.8333,11.5 93.5,11.5C 94.8221,11.67 95.9887,11.3366 97,10.5C 98.5,13.3333 100.667,15.5 103.5,17C 103.167,17.3333 102.833,17.6667 102.5,18C 108.37,28.9686 107.37,39.302 99.5,49C 101.351,50.6837 103.018,52.5171 104.5,54.5C 103.342,57.1712 101.509,59.1712 99,60.5C 95.2452,58.7452 92.0785,56.2452 89.5,53C 94.439,46.0457 95.939,38.5457 94,30.5C 91.5034,25.2721 87.3367,22.9387 81.5,23.5C 71.0186,24.4894 66.0186,30.3228 66.5,41C 67.739,45.3856 69.739,49.3856 72.5,53C 69.8968,56.2761 66.7301,58.7761 63,60.5C 60.3332,58.6653 58.1665,56.3319 56.5,53.5C 57.5,52.1667 58.5,50.8333 59.5,49.5C 55.6286,40.6107 55.1286,31.6107 58,22.5C 58.3768,21.0577 59.2101,20.0577 60.5,19.5 Z"/></g>
<g><path style="opacity:1" fill="#bfc0bf" d="M 1.5,65.5 C 54.1667,65.5 106.833,65.5 159.5,65.5C 159.5,84.1667 159.5,102.833 159.5,121.5C 107.167,121.5 54.8333,121.5 2.5,121.5C 1.5031,103.007 1.16976,84.3408 1.5,65.5 Z"/></g>
<g><path style="opacity:1" fill="#800100" d="M 41.5,79.5 C 43.1733,80.343 44.34,81.6763 45,83.5C 48.1389,91.0865 50.9722,98.7532 53.5,106.5C 52.325,106.719 51.325,106.386 50.5,105.5C 47.7641,98.7924 44.9308,92.1258 42,85.5C 39.3178,90.8644 36.6511,96.1978 34,101.5C 31.6027,96.3728 28.936,91.3728 26,86.5C 22.4118,92.6754 19.0785,99.0087 16,105.5C 14.8173,106.731 13.6507,106.731 12.5,105.5C 16.6439,97.3792 20.6439,89.2126 24.5,81C 26.1134,80.9115 27.2801,81.7448 28,83.5C 29.746,87.3267 31.746,90.9934 34,94.5C 36.5133,89.4734 39.0133,84.4734 41.5,79.5 Z"/></g>
<g><path style="opacity:1" fill="#7f0000" d="M 58.5,80.5 C 62.5138,80.3345 66.5138,80.5012 70.5,81C 76.2248,84.1707 76.8915,88.1707 72.5,93C 68.9743,94.3368 65.3076,94.8368 61.5,94.5C 61.5,98.5 61.5,102.5 61.5,106.5C 60.5,106.5 59.5,106.5 58.5,106.5C 58.5,97.8333 58.5,89.1667 58.5,80.5 Z"/></g>
<g><path style="opacity:1" fill="#7f0000" d="M 84.5,80.5 C 85.5,80.5 86.5,80.5 87.5,80.5C 87.5,88.1667 87.5,95.8333 87.5,103.5C 91.8333,103.5 96.1667,103.5 100.5,103.5C 100.5,104.5 100.5,105.5 100.5,106.5C 95.1667,106.5 89.8333,106.5 84.5,106.5C 84.5,97.8333 84.5,89.1667 84.5,80.5 Z"/></g>
<g><path style="opacity:1" fill="#7f0000" d="M 99.5,80.5 C 100.5,80.5 101.5,80.5 102.5,80.5C 104.264,86.6994 106.598,92.6994 109.5,98.5C 112.402,92.6994 114.736,86.6994 116.5,80.5C 117.5,80.5 118.5,80.5 119.5,80.5C 116.733,89.3709 113.399,98.0376 109.5,106.5C 105.958,97.8682 102.625,89.2016 99.5,80.5 Z"/></g>
<g><path style="opacity:1" fill="#7f0000" d="M 128.5,80.5 C 129.5,80.5 130.5,80.5 131.5,80.5C 131.5,89.5 131.5,98.5 131.5,107.5C 130.5,107.5 129.5,107.5 128.5,107.5C 128.5,98.5 128.5,89.5 128.5,80.5 Z"/></g>
<g><path style="opacity:1" fill="#7f0000" d="M 141.5,80.5 C 142.5,80.5 143.5,80.5 144.5,80.5C 144.5,89.5 144.5,98.5 144.5,107.5C 143.5,107.5 142.5,107.5 141.5,107.5C 141.5,98.5 141.5,89.5 141.5,80.5 Z"/></g>
<g><path style="opacity:1" fill="#bfc0bf" d="M 61.5,83.5 C 64.5184,83.3354 67.5184,83.502 70.5,84C 71.8333,86.3333 71.8333,88.6667 70.5,91C 67.5184,91.498 64.5184,91.6646 61.5,91.5C 61.5,88.8333 61.5,86.1667 61.5,83.5 Z"/></g>
<g><path style="opacity:1" fill="#7f0000" d="M 51.5,91.5 C 52.5,91.5 53.5,91.5 54.5,91.5C 54.5,92.5 54.5,93.5 54.5,94.5C 53.5,94.5 52.5,94.5 51.5,94.5C 51.5,93.5 51.5,92.5 51.5,91.5 Z"/></g>
<g><path style="opacity:1" fill="#7f0000" d="M 77.5,91.5 C 78.5,91.5 79.5,91.5 80.5,91.5C 80.5,92.5 80.5,93.5 80.5,94.5C 79.5,94.5 78.5,94.5 77.5,94.5C 77.5,93.5 77.5,92.5 77.5,91.5 Z"/></g>
<g><path style="opacity:1" fill="#026600" d="M 2.5,121.5 C 54.8333,121.5 107.167,121.5 159.5,121.5C 150.658,168.528 122.492,192.528 75,193.5C 37.014,188.516 13.014,167.516 3,130.5C 2.50204,127.518 2.33537,124.518 2.5,121.5 Z"/></g>
<g><path style="opacity:1" fill="#e2ad1a" d="M 87.5,127.5 C 87.9731,128.906 88.9731,129.573 90.5,129.5C 92.0618,129.733 93.3951,130.4 94.5,131.5C 94.427,133.027 95.0937,134.027 96.5,134.5C 98.385,136.053 99.385,138.053 99.5,140.5C 99.5,143.5 99.5,146.5 99.5,149.5C 99.6107,150.117 99.944,150.617 100.5,151C 98.5,153.333 96.5,155.667 94.5,158C 106.693,155.612 116.36,149.446 123.5,139.5C 123.189,141.265 123.856,142.932 125.5,144.5C 125.5,145.167 125.5,145.833 125.5,146.5C 121.743,148.214 118.077,150.214 114.5,152.5C 113.128,153.512 111.795,154.512 110.5,155.5C 105.703,158.062 100.703,160.396 95.5,162.5C 94.1667,162.5 92.8333,162.5 91.5,162.5C 90.8333,162.833 90.1667,163.167 89.5,163.5C 89.5,162.167 89.5,160.833 89.5,159.5C 98.1972,151.211 98.5306,142.711 90.5,134C 81.4,128.633 73.2333,129.8 66,137.5C 64.566,141.406 64.2327,145.406 65,149.5C 66.2545,153.004 67.7545,156.337 69.5,159.5C 67.8564,159.81 66.8564,160.81 66.5,162.5C 63.9333,161.525 61.2666,160.858 58.5,160.5C 54.0195,158.759 49.6862,156.759 45.5,154.5C 40.575,150.931 35.2416,149.931 29.5,151.5C 28.609,150.89 27.609,150.557 26.5,150.5C 28.6351,148.929 30.9684,147.596 33.5,146.5C 34.552,146.649 35.552,146.483 36.5,146C 37.652,143.851 39.152,142.018 41,140.5C 41.3333,140.833 41.6667,141.167 42,141.5C 43.1474,139.181 44.9807,137.848 47.5,137.5C 48.1098,138.391 48.4431,139.391 48.5,140.5C 47.3792,143.3 48.2125,145.633 51,147.5C 51.4935,149.134 51.6602,150.801 51.5,152.5C 52.9587,152.433 54.2921,152.766 55.5,153.5C 57.7991,154.778 60.1324,156.111 62.5,157.5C 63.041,155.477 62.541,153.477 61,151.5C 59.1286,139.738 63.6286,131.571 74.5,127C 78.9196,126.232 83.2529,126.398 87.5,127.5 Z"/></g>
<g><path style="opacity:1" fill="#aa5d2e" d="M 87.5,127.5 C 89.0269,127.427 90.0269,128.094 90.5,129.5C 88.9731,129.573 87.9731,128.906 87.5,127.5 Z"/></g>
<g><path style="opacity:1" fill="#016600" d="M 89.5,159.5 C 83.3628,160.793 76.6961,160.793 69.5,159.5C 67.7545,156.337 66.2545,153.004 65,149.5C 64.2327,145.406 64.566,141.406 66,137.5C 73.2333,129.8 81.4,128.633 90.5,134C 98.5306,142.711 98.1972,151.211 89.5,159.5 Z"/></g>
<g><path style="opacity:1" fill="#b97a33" d="M 47.5,137.5 C 44.9807,137.848 43.1474,139.181 42,141.5C 41.6667,141.167 41.3333,140.833 41,140.5C 39.152,142.018 37.652,143.851 36.5,146C 35.552,146.483 34.552,146.649 33.5,146.5C 33.5,146.167 33.5,145.833 33.5,145.5C 35.6698,144.162 37.3365,142.328 38.5,140C 39.448,139.517 40.448,139.351 41.5,139.5C 41.3832,137.516 42.0499,135.85 43.5,134.5C 41.6029,133.348 39.9362,133.681 38.5,135.5C 37.2789,134.535 35.9456,134.702 34.5,136C 29.9715,139.364 25.9715,143.197 22.5,147.5C 23.4769,144.011 25.4769,141.177 28.5,139C 33.0026,135.245 38.0026,132.245 43.5,130C 44.7839,129.316 45.9505,129.483 47,130.5C 47.4966,132.81 47.6633,135.143 47.5,137.5 Z"/></g>
<g><path style="opacity:1" fill="#a85b2e" d="M 94.5,131.5 C 95.9063,131.973 96.573,132.973 96.5,134.5C 95.0937,134.027 94.427,133.027 94.5,131.5 Z"/></g>
<g><path style="opacity:1" fill="#dba21d" d="M 33.5,145.5 C 32.448,145.649 31.448,145.483 30.5,145C 32.8284,141.484 35.4951,138.318 38.5,135.5C 39.9362,133.681 41.6029,133.348 43.5,134.5C 42.0499,135.85 41.3832,137.516 41.5,139.5C 40.448,139.351 39.448,139.517 38.5,140C 37.3365,142.328 35.6698,144.162 33.5,145.5 Z"/></g>
<g><path style="opacity:1" fill="#97532d" d="M 38.5,135.5 C 35.4951,138.318 32.8284,141.484 30.5,145C 31.448,145.483 32.448,145.649 33.5,145.5C 33.5,145.833 33.5,146.167 33.5,146.5C 30.9684,147.596 28.6351,148.929 26.5,150.5C 25.1667,150.5 23.8333,150.5 22.5,150.5C 22.5,149.5 22.5,148.5 22.5,147.5C 25.9715,143.197 29.9715,139.364 34.5,136C 35.9456,134.702 37.2789,134.535 38.5,135.5 Z"/></g>
<g><path style="opacity:1" fill="#b66a3d" d="M 125.5,146.5 C 125.5,145.833 125.5,145.167 125.5,144.5C 126.268,143.737 126.768,142.737 127,141.5C 129.069,143.837 128.569,145.504 125.5,146.5 Z"/></g>
<g><path style="opacity:1" fill="#c2832b" d="M 48.5,140.5 C 51.1002,144.701 53.4335,149.034 55.5,153.5C 54.2921,152.766 52.9587,152.433 51.5,152.5C 51.6602,150.801 51.4935,149.134 51,147.5C 48.2125,145.633 47.3792,143.3 48.5,140.5 Z"/></g>
<g><path style="opacity:1" fill="#a65a2f" d="M 99.5,140.5 C 100.216,142.556 100.883,144.723 101.5,147C 100.934,147.995 100.267,148.828 99.5,149.5C 99.5,146.5 99.5,143.5 99.5,140.5 Z"/></g>
<g><path style="opacity:1" fill="#ae6530" d="M 29.5,151.5 C 35.2416,149.931 40.575,150.931 45.5,154.5C 40.368,152.865 35.0347,151.865 29.5,151.5 Z"/></g>
<g><path style="opacity:1" fill="#a65a2f" d="M 114.5,152.5 C 114.306,154.912 112.973,155.912 110.5,155.5C 111.795,154.512 113.128,153.512 114.5,152.5 Z"/></g>
<g><path style="opacity:1" fill="#ae6130" d="M 58.5,160.5 C 61.2666,160.858 63.9333,161.525 66.5,162.5C 66.44,163.043 66.1067,163.376 65.5,163.5C 62.873,162.942 60.5396,161.942 58.5,160.5 Z"/></g>
<g><path style="opacity:1" fill="#a75d2e" d="M 91.5,162.5 C 92.8333,162.5 94.1667,162.5 95.5,162.5C 94.469,163.249 93.3024,163.915 92,164.5C 91.5357,163.906 91.369,163.239 91.5,162.5 Z"/></g>
<g><path style="opacity:1" fill="#0f6602" d="M 86.5,169.5 C 84.7041,170.793 83.0375,172.293 81.5,174C 79.8034,174.384 78.1368,174.218 76.5,173.5C 73.9746,171.125 71.9746,168.291 70.5,165C 72.8183,164.658 74.985,165.158 77,166.5C 80.4974,166.608 83.8308,166.275 87,165.5C 87.5,165.667 88,165.833 88.5,166C 87.1772,166.816 86.5106,167.983 86.5,169.5 Z"/></g>
<g><path style="opacity:1" fill="#c87d53" d="M 89.5,159.5 C 89.5,160.833 89.5,162.167 89.5,163.5C 89.9754,166.313 88.9754,168.313 86.5,169.5C 86.5106,167.983 87.1772,166.816 88.5,166C 88,165.833 87.5,165.667 87,165.5C 83.8308,166.275 80.4974,166.608 77,166.5C 74.985,165.158 72.8183,164.658 70.5,165C 71.9746,168.291 73.9746,171.125 76.5,173.5C 71.7417,171.077 68.4084,167.411 66.5,162.5C 66.8564,160.81 67.8564,159.81 69.5,159.5C 76.6961,160.793 83.3628,160.793 89.5,159.5 Z"/></g>
<g><path style="opacity:1" fill="#bd754b" d="M 86.5,169.5 C 85.7974,171.716 84.4641,173.549 82.5,175C 83.6457,177.557 82.6457,178.89 79.5,179C 82.285,179.726 82.9516,181.226 81.5,183.5C 79.6267,181.257 77.6267,181.09 75.5,183C 76.1667,183.667 76.8333,184.333 77.5,185C 76.2888,185.893 76.2888,186.726 77.5,187.5C 78.7992,186.306 80.1325,185.306 81.5,184.5C 85.4589,183.388 86.2922,184.721 84,188.5C 81.7779,185.956 79.6112,185.956 77.5,188.5C 76.3527,188.182 75.5194,187.516 75,186.5C 73.9719,182.828 74.8052,179.662 77.5,177C 77.0109,175.862 76.6775,174.695 76.5,173.5C 78.1368,174.218 79.8034,174.384 81.5,174C 83.0375,172.293 84.7041,170.793 86.5,169.5 Z"/></g>
<g><path style="opacity:1" fill="#faefe9" d="M 81.5,183.5 C 81.5,183.833 81.5,184.167 81.5,184.5C 80.1325,185.306 78.7992,186.306 77.5,187.5C 76.2888,186.726 76.2888,185.893 77.5,185C 76.8333,184.333 76.1667,183.667 75.5,183C 77.6267,181.09 79.6267,181.257 81.5,183.5 Z"/></g>
</svg>

<svg xmlns="http://www.w3.org/2000/svg" width="162" height="196" style="shape-rendering:geometricPrecision;text-rendering:geometricPrecision;image-rendering:optimizeQuality;fill-rule:evenodd;clip-rule:evenodd"><path style="opacity:.97" fill="#010202" d="M8.5-.5h147c1 3 3 5 6 6v121c-8.889 38.223-32.556 61.223-71 69h-21c-39.895-7.895-63.228-31.895-70-72V4.5c3.838-.413 6.838-2.08 9-5z"/><path style="opacity:1" fill="#e29867" d="M144.5 5.5H4.5c1.6-1.144 3.267-2.311 5-3.5 48.333-.667 96.667-.667 145 0l3 3a84.94 84.94 0 0 1-13 .5z"/><path style="opacity:1" fill="#006500" d="M4.5 5.5h140c4.805.987 9.805 1.32 15 1v59H1.5c-.167-19.67 0-39.336.5-59 .67-.752 1.504-1.086 2.5-1z"/><path style="opacity:1" fill="#aa6e49" d="M92.5 12.5c1.67.251 3.17.918 4.5 2 8.626 11.76 8.459 23.427-.5 35l-1-1.5a134.857 134.857 0 0 1 6-14c-1.333-1.84-1.166-2.34.5-1.5.667-1.333.667-2.667 0-4l-1 2c-.684-1.284-.517-2.45.5-3.5a33.29 33.29 0 0 1-3.5-8.5l-1 1a24.922 24.922 0 0 0-6.5-5c-.406 1.057-.406 2.39 0 4a36.874 36.874 0 0 1-12-1 4.452 4.452 0 0 0-1.5-2c-1.758 3.163-3.758 3.496-6 1-10.18 8.572-12.013 18.739-5.5 30.5a4.452 4.452 0 0 1-2 1.5c-6.138-9.061-6.805-18.395-2-28a30.593 30.593 0 0 1 12-8.5c1.333-.667 2.667-.667 4 0 2.667 3.333 5.333 3.333 8 0 2.43-.703 4.763-.537 7 .5z"/><path style="opacity:1" fill="#cb9176" d="M93.5 11.5c-.667 0-1 .333-1 1-2.237-1.037-4.57-1.203-7-.5-2.667 3.333-5.333 3.333-8 0-1.333-.667-2.667-.667-4 0a30.593 30.593 0 0 0-12 8.5c-.667 0-1-.333-1-1 2.462-5.579 6.795-8.745 13-9.5 6-.667 12-.667 18 0 .916.278 1.582.778 2 1.5z"/><path style="opacity:1" fill="#c1b7b2" d="M60.5 19.5c0 .667.333 1 1 1-4.805 9.605-4.138 18.939 2 28a4.452 4.452 0 0 0 2-1.5c-6.513-11.761-4.68-21.928 5.5-30.5 2.242 2.496 4.242 2.163 6-1a4.452 4.452 0 0 1 1.5 2 36.874 36.874 0 0 0 12 1c-.406-1.61-.406-2.943 0-4a24.922 24.922 0 0 1 6.5 5l1-1a33.29 33.29 0 0 0 3.5 8.5c-1.017 1.05-1.184 2.216-.5 3.5l1-2c.667 1.333.667 2.667 0 4-1.666-.84-1.833-.34-.5 1.5a134.857 134.857 0 0 0-6 14l1 1.5c8.959-11.573 9.126-23.24.5-35a9.173 9.173 0 0 0-4.5-2c0-.667.333-1 1-1 1.322.17 2.489-.163 3.5-1 1.5 2.833 3.667 5 6.5 6.5l-1 1c5.87 10.969 4.87 21.302-3 31a38.918 38.918 0 0 1 5 5.5c-1.158 2.671-2.991 4.671-5.5 6a26.076 26.076 0 0 1-9.5-7.5c4.939-6.954 6.439-14.454 4.5-22.5-2.497-5.228-6.663-7.561-12.5-7-10.481.99-15.481 6.823-15 17.5a35.486 35.486 0 0 0 6 12c-2.603 3.276-5.77 5.776-9.5 7.5-2.667-1.835-4.834-4.168-6.5-7l3-4c-3.871-8.89-4.371-17.89-1.5-27 .377-1.442 1.21-2.442 2.5-3z"/><path style="opacity:1" fill="#bfc0bf" d="M1.5 65.5h158v56H2.5a784.6 784.6 0 0 1-1-56z"/><path style="opacity:1" fill="#800100" d="M41.5 79.5c1.673.843 2.84 2.176 3.5 4a318.857 318.857 0 0 1 8.5 23c-1.175.219-2.175-.114-3-1a744.792 744.792 0 0 0-8.5-20l-8 16a162.005 162.005 0 0 0-8-15 257.005 257.005 0 0 0-10 19c-1.183 1.231-2.35 1.231-3.5 0a830.203 830.203 0 0 0 12-24.5c1.613-.088 2.78.745 3.5 2.5a87.443 87.443 0 0 0 6 11l7.5-15z"/><path style="opacity:1" fill="#7f0000" d="M58.5 80.5a72.444 72.444 0 0 1 12 .5c5.725 3.17 6.391 7.17 2 12-3.526 1.337-7.192 1.837-11 1.5v12h-3v-26zM84.5 80.5h3v23h13v3h-16v-26zM99.5 80.5h3c1.764 6.2 4.098 12.2 7 18 2.902-5.8 5.236-11.8 7-18h3a215.21 215.21 0 0 1-10 26 624.478 624.478 0 0 1-10-26zM128.5 80.5h3v27h-3v-27zM141.5 80.5h3v27h-3v-27z"/><path style="opacity:1" fill="#bfc0bf" d="M61.5 83.5a40.936 40.936 0 0 1 9 .5c1.333 2.333 1.333 4.667 0 7a40.936 40.936 0 0 1-9 .5v-8z"/><path style="opacity:1" fill="#7f0000" d="M51.5 91.5h3v3h-3v-3zM77.5 91.5h3v3h-3v-3z"/><path style="opacity:1" fill="#026600" d="M2.5 121.5h157c-8.842 47.028-37.008 71.028-84.5 72-37.986-4.984-61.986-25.984-72-63a40.94 40.94 0 0 1-.5-9z"/><path style="opacity:1" fill="#e2ad1a" d="M87.5 127.5c.473 1.406 1.473 2.073 3 2 1.562.233 2.895.9 4 2-.073 1.527.594 2.527 2 3 1.885 1.553 2.885 3.553 3 6v9c.11.617.444 1.117 1 1.5l-6 7c12.193-2.388 21.86-8.554 29-18.5-.311 1.765.356 3.432 2 5v2a89.055 89.055 0 0 0-11 6 308.607 308.607 0 0 0-4 3 155.767 155.767 0 0 1-15 7h-4l-2 1v-4c8.697-8.289 9.03-16.789 1-25.5-9.1-5.367-17.267-4.2-24.5 3.5-1.434 3.906-1.767 7.906-1 12a68.312 68.312 0 0 0 4.5 10c-1.644.31-2.644 1.31-3 3a35.151 35.151 0 0 0-8-2 115.217 115.217 0 0 1-13-6c-4.925-3.569-10.258-4.569-16-3a5.727 5.727 0 0 0-3-1 35.68 35.68 0 0 1 7-4 4.934 4.934 0 0 0 3-.5 18.117 18.117 0 0 1 4.5-5.5l1 1c1.147-2.319 2.98-3.652 5.5-4 .61.891.943 1.891 1 3-1.12 2.8-.288 5.133 2.5 7 .493 1.634.66 3.301.5 5 1.459-.067 2.792.266 4 1 2.3 1.278 4.632 2.611 7 4 .541-2.023.041-4.023-1.5-6-1.871-11.762 2.629-19.929 13.5-24.5 4.42-.768 8.753-.602 13 .5z"/><path style="opacity:1" fill="#aa5d2e" d="M87.5 127.5c1.527-.073 2.527.594 3 2-1.527.073-2.527-.594-3-2z"/><path style="opacity:1" fill="#016600" d="M89.5 159.5c-6.137 1.293-12.804 1.293-20 0a68.312 68.312 0 0 1-4.5-10c-.767-4.094-.434-8.094 1-12 7.233-7.7 15.4-8.867 24.5-3.5 8.03 8.711 7.697 17.211-1 25.5z"/><path style="opacity:1" fill="#b97a33" d="M47.5 137.5c-2.52.348-4.353 1.681-5.5 4l-1-1a18.117 18.117 0 0 0-4.5 5.5 4.934 4.934 0 0 1-3 .5v-1c2.17-1.338 3.837-3.172 5-5.5a4.934 4.934 0 0 1 3-.5c-.117-1.984.55-3.65 2-5-1.897-1.152-3.564-.819-5 1-1.221-.965-2.554-.798-4 .5a65.603 65.603 0 0 0-12 11.5c.977-3.489 2.977-6.323 6-8.5a56.797 56.797 0 0 1 15-9c1.284-.684 2.45-.517 3.5.5.497 2.31.663 4.643.5 7z"/><path style="opacity:1" fill="#a85b2e" d="M94.5 131.5c1.406.473 2.073 1.473 2 3-1.406-.473-2.073-1.473-2-3z"/><path style="opacity:1" fill="#dba21d" d="M33.5 145.5a4.934 4.934 0 0 1-3-.5 53.347 53.347 0 0 1 8-9.5c1.436-1.819 3.103-2.152 5-1-1.45 1.35-2.117 3.016-2 5a4.934 4.934 0 0 0-3 .5c-1.163 2.328-2.83 4.162-5 5.5z"/><path style="opacity:1" fill="#97532d" d="M38.5 135.5a53.347 53.347 0 0 0-8 9.5 4.934 4.934 0 0 0 3 .5v1a35.68 35.68 0 0 0-7 4h-4v-3a65.603 65.603 0 0 1 12-11.5c1.446-1.298 2.779-1.465 4-.5z"/><path style="opacity:1" fill="#b66a3d" d="M125.5 146.5v-2c.768-.763 1.268-1.763 1.5-3 2.069 2.337 1.569 4.004-1.5 5z"/><path style="opacity:1" fill="#c2832b" d="M48.5 140.5c2.6 4.201 4.934 8.534 7 13-1.208-.734-2.541-1.067-4-1a12.935 12.935 0 0 0-.5-5c-2.788-1.867-3.62-4.2-2.5-7z"/><path style="opacity:1" fill="#a65a2f" d="M99.5 140.5a96.578 96.578 0 0 1 2 6.5c-.566.995-1.233 1.828-2 2.5v-9z"/><path style="opacity:1" fill="#ae6530" d="M29.5 151.5c5.742-1.569 11.075-.569 16 3-5.132-1.635-10.465-2.635-16-3z"/><path style="opacity:1" fill="#a65a2f" d="M114.5 152.5c-.194 2.412-1.527 3.412-4 3a308.607 308.607 0 0 1 4-3z"/><path style="opacity:1" fill="#ae6130" d="M58.5 160.5a35.151 35.151 0 0 1 8 2c-.06.543-.393.876-1 1-2.627-.558-4.96-1.558-7-3z"/><path style="opacity:1" fill="#a75d2e" d="M91.5 162.5h4a19.588 19.588 0 0 1-3.5 2 2.427 2.427 0 0 1-.5-2z"/><path style="opacity:1" fill="#0f6602" d="M86.5 169.5a31.473 31.473 0 0 0-5 4.5c-1.697.384-3.363.218-5-.5-2.525-2.375-4.525-5.209-6-8.5 2.318-.342 4.485.158 6.5 1.5 3.497.108 6.83-.225 10-1l1.5.5c-1.323.816-1.99 1.983-2 3.5z"/><path style="opacity:1" fill="#c87d53" d="M89.5 159.5v4c.475 2.813-.525 4.813-3 6 .01-1.517.677-2.684 2-3.5l-1.5-.5c-3.17.775-6.503 1.108-10 1-2.015-1.342-4.182-1.842-6.5-1.5 1.475 3.291 3.475 6.125 6 8.5-4.758-2.423-8.092-6.089-10-11 .356-1.69 1.356-2.69 3-3 7.196 1.293 13.863 1.293 20 0z"/><path style="opacity:1" fill="#bd754b" d="M86.5 169.5c-.703 2.216-2.036 4.049-4 5.5 1.146 2.557.146 3.89-3 4 2.785.726 3.452 2.226 2 4.5-1.873-2.243-3.873-2.41-6-.5l2 2c-1.211.893-1.211 1.726 0 2.5 1.3-1.194 2.632-2.194 4-3 3.959-1.112 4.792.221 2.5 4-2.222-2.544-4.389-2.544-6.5 0-1.147-.318-1.98-.984-2.5-2-1.028-3.672-.195-6.838 2.5-9.5a14.068 14.068 0 0 1-1-3.5c1.637.718 3.303.884 5 .5a31.473 31.473 0 0 1 5-4.5z"/><path style="opacity:1" fill="#faefe9" d="M81.5 183.5v1c-1.368.806-2.7 1.806-4 3-1.211-.774-1.211-1.607 0-2.5l-2-2c2.127-1.91 4.127-1.743 6 .5z"/></svg>
